flaticon/gastronomy/whisk.svg

<svg xmlns="http://www.w3.org/2000/svg" width="32" height="32" viewBox="0 0 24 24">
    <path d="M 23.65625 1.105469 L 22.957031 0.40625 C 22.515625 -0.0351562 21.738281 -0.0351562 21.292969 0.40625 L 14.390625 7.3125 L 15.214844 8.136719 L 12.789062 10.5625 C 12.75 10.566406 12.710938 10.574219 12.667969 10.582031 C 10.261719 10.023438 7.214844 11.390625 3.367188 14.753906 C 2.726562 15.3125 1.992188 15.96875 1.339844 16.695312 C -0.335938 18.5625 -0.457031 21.328125 1.070312 22.855469 C 1.789062 23.570312 2.777344 23.925781 3.820312 23.925781 C 4.996094 23.925781 6.238281 23.472656 7.230469 22.585938 C 7.953125 21.9375 8.609375 21.199219 9.171875 20.558594 C 10.546875 18.984375 11.578125 17.53125 12.316406 16.117188 C 12.808594 15.179688 13.132812 14.328125 13.308594 13.511719 C 13.410156 13.039062 13.457031 12.582031 13.449219 12.152344 L 13.449219 12.046875 C 13.449219 11.726562 13.429688 11.421875 13.363281 11.167969 L 15.804688 8.726562 L 16.75 9.675781 L 23.65625 2.769531 C 23.878906 2.546875 24 2.253906 24 1.9375 C 24 1.625 23.878906 1.328125 23.65625 1.105469 Z M 1.589844 21.734375 C 1.605469 21.632812 1.625 21.527344 1.660156 21.414062 C 1.933594 20.523438 2.59375 19.554688 3.617188 18.53125 C 4.167969 17.96875 4.761719 17.390625 5.488281 16.707031 C 7.003906 15.28125 8.273438 14.191406 9.480469 13.28125 L 9.605469 13.1875 C 10.136719 12.785156 10.738281 12.332031 11.351562 11.976562 Z M 11.914062 12.59375 C 11.640625 13.050781 11.324219 13.492188 11.050781 13.875 L 11.007812 13.9375 C 9.941406 15.417969 8.734375 16.777344 7.796875 17.796875 C 7.003906 18.667969 6.25 19.453125 5.496094 20.195312 C 4.875 20.808594 4.335938 21.261719 3.792969 21.613281 C 3.117188 22.058594 2.566406 22.304688 2.15625 22.351562 Z M 1.960938 17.253906 C 2.582031 16.5625 3.296875 15.925781 3.914062 15.382812 C 6.640625 13 8.902344 11.667969 10.757812 11.359375 C 10.167969 11.71875 9.605469 12.140625 9.101562 12.519531 L 8.976562 12.617188 C 7.746094 13.546875 6.457031 14.652344 4.914062 16.097656 C 4.179688 16.789062 3.578125 17.375 3.023438 17.941406 C 1.980469 18.984375 1.28125 20 0.9375 20.960938 C 0.632812 19.777344 0.984375 18.339844 1.960938 17.253906 Z M 11.578125 15.726562 C 10.867188 17.082031 9.875 18.484375 8.542969 20.007812 C 8 20.632812 7.359375 21.347656 6.671875 21.964844 C 5.589844 22.933594 4.15625 23.289062 2.980469 22.992188 C 3.445312 22.8125 3.890625 22.550781 4.253906 22.3125 C 4.839844 21.925781 5.421875 21.445312 6.082031 20.789062 C 6.847656 20.035156 7.609375 19.242188 8.414062 18.363281 C 9.363281 17.328125 10.59375 15.941406 11.683594 14.421875 L 11.730469 14.359375 C 11.976562 14.019531 12.253906 13.628906 12.511719 13.214844 C 12.503906 13.257812 12.503906 13.296875 12.492188 13.335938 C 12.335938 14.074219 12.035156 14.859375 11.578125 15.726562 Z M 17.453125 5.429688 L 19.226562 6.019531 L 19 6.246094 L 17.226562 5.652344 Z M 15.570312 7.3125 L 16.570312 6.3125 L 18.339844 6.902344 L 16.75 8.492188 Z M 23.066406 2.179688 L 19.886719 5.359375 L 18.113281 4.769531 L 21.886719 1 C 22.011719 0.871094 22.238281 0.871094 22.367188 1 L 23.066406 1.695312 C 23.128906 1.761719 23.164062 1.847656 23.164062 1.9375 C 23.164062 2.03125 23.128906 2.113281 23.066406 2.179688 Z M 23.066406 2.179688"/>
</svg>

<svg xmlns="http://www.w3.org/2000/svg" width="32" height="32" viewBox="0 0 24 24">
    <path d="M23.656 1.105l-.699-.699c-.441-.441-1.219-.441-1.664 0l-6.902 6.907.824.824-2.426 2.425c-.039.004-.078.012-.121.02-2.406-.559-5.453.809-9.3 4.172-.641.559-1.376 1.215-2.028 1.941-1.676 1.867-1.797 4.633-.27 6.16.72.715 1.707 1.07 2.75 1.07 1.176 0 2.418-.452 3.41-1.34.723-.648 1.38-1.386 1.942-2.026 1.375-1.575 2.406-3.028 3.144-4.442.493-.937.817-1.789.993-2.605a5.98 5.98 0 0 0 .14-1.36v-.105c0-.32-.02-.625-.086-.879l2.442-2.441.945.949 6.906-6.906c.223-.223.344-.516.344-.833 0-.312-.121-.609-.344-.832zM1.59 21.735c.015-.102.035-.208.07-.32.274-.892.934-1.86 1.957-2.884.551-.562 1.145-1.14 1.871-1.824 1.516-1.426 2.785-2.516 3.992-3.426l.125-.094c.532-.402 1.133-.855 1.747-1.21zm10.324-9.141c-.273.457-.59.898-.863 1.281l-.043.063c-1.067 1.48-2.274 2.84-3.211 3.859a60.281 60.281 0 0 1-2.3 2.398c-.622.614-1.161 1.067-1.704 1.418-.676.446-1.227.692-1.637.739zm-9.953 4.66c.621-.692 1.336-1.328 1.953-1.871 2.727-2.383 4.988-3.715 6.844-4.024-.59.36-1.153.782-1.656 1.16l-.125.098c-1.23.93-2.52 2.035-4.063 3.48a64.404 64.404 0 0 0-1.89 1.844C1.98 18.984 1.28 20 .936 20.961c-.304-1.184.047-2.621 1.024-3.707zm9.617-1.527c-.71 1.355-1.703 2.757-3.035 4.28-.543.626-1.184 1.34-1.871 1.958-1.082.969-2.516 1.324-3.692 1.027a6.99 6.99 0 0 0 1.274-.68c.586-.386 1.168-.867 1.828-1.523a64.516 64.516 0 0 0 2.332-2.426c.95-1.035 2.18-2.422 3.27-3.941l.046-.063c.247-.34.524-.73.782-1.144-.008.043-.008.082-.02.12-.156.74-.457 1.524-.914 2.392zM17.453 5.43l1.774.59-.227.226-1.773-.594zM15.57 7.313l1-1 1.77.59-1.59 1.59zm7.496-5.133l-3.18 3.18-1.773-.59L21.887 1a.347.347 0 0 1 .48 0l.7.695a.346.346 0 0 1 0 .484zm0 0"/>
</svg>
